Newaita-dark/apps/48/codeblocks.svg

<svg height="48pt" viewBox="0 0 48 48" width="48pt" xmlns="http://www.w3.org/2000/svg" xmlns:xlink="http://www.w3.org/1999/xlink"><linearGradient id="a" gradientUnits="userSpaceOnUse" x1="23.81478" x2="23.81478" y1="42.0509045" y2="44.03547050005"><stop offset="0" stop-opacity=".27451"/><stop offset="1" stop-opacity="0"/></linearGradient><linearGradient id="b"><stop offset="0" stop-opacity=".313725"/><stop offset=".222222" stop-opacity=".27451"/><stop offset="1" stop-opacity="0"/></linearGradient><radialGradient id="c" cx="450.908936" cy="189.579361" gradientTransform="matrix(.00000026 -.117199 -.210958 -.00000015 78.195972 95.392999)" gradientUnits="userSpaceOnUse" r="21.166656" xlink:href="#b"/><radialGradient id="d" cx="450.908936" cy="189.579361" gradientTransform="matrix(-.00000026 .117199 .210958 .00000015 -30.56642 -11.291218)" gradientUnits="userSpaceOnUse" r="21.166656" xlink:href="#b"/><radialGradient id="e" cx="450.908936" cy="189.579361" gradientTransform="matrix(-.00000026 -.117199 .210958 -.00000015 -30.56642 95.392999)" gradientUnits="userSpaceOnUse" r="21.166656" xlink:href="#b"/><radialGradient id="f" cx="450.908936" cy="189.579361" gradientTransform="matrix(.00000026 .117199 -.210958 .00000015 78.195969 -11.291219)" gradientUnits="userSpaceOnUse" r="21.166656" xlink:href="#b"/><linearGradient id="g" gradientTransform="matrix(-1 0 0 1 508 -.000004)" gradientUnits="userSpaceOnUse" x1="338.666656" x2="338.666656" y1="32.416668" y2="-168.666656"><stop offset="0" stop-color="#ef5350"/><stop offset="1" stop-color="#e57373"/></linearGradient><linearGradient id="h" gradientUnits="userSpaceOnUse" x1="1280.00010901837" x2="1280.00010901837" y1="935.1181543727" y2="175.11810098163"><stop offset="0" stop-color="#66bb6a"/><stop offset="1" stop-color="#81c784"/></linearGradient><linearGradient id="i" gradientTransform="matrix(0 1 1 0 221.583572 -221.583313)" gradientUnits="userSpaceOnUse" x1="455.083313" x2="254" y1="-62.833569" y2="-62.833569"><stop offset="0" stop-color="#ffa726"/><stop offset="1" stop-color="#ffb74d"/></linearGradient><linearGradient id="j" gradientTransform="matrix(1 0 0 -1 0 64.833092)" gradientUnits="userSpaceOnUse" x1="338.666656" x2="338.666656" y1="32.416428" y2="-168.666916"><stop offset="0" stop-color="#64b5f6"/><stop offset="1" stop-color="#42a5f5"/></linearGradient><path d="m8.929688 41.902344h29.769531v2.207031h-29.769531zm0 0" fill="url(#a)"/><path d="m38.699219 42.050781h3.96875v-1.984375h-3.96875zm0 0" fill="url(#c)"/><path d="m8.929688 42.050781h-3.96875v1.984375h3.96875zm0 0" fill="url(#d)"/><path d="m8.929688 42.050781h-3.96875v-1.984375h3.96875zm0 0" fill="url(#e)"/><path d="m38.699219 42.050781h3.96875v1.984375h-3.96875zm0 0" fill="url(#f)"/><path d="m254.017409-168.671091v201.105795h-201.105795v-179.941149c0-11.707216 9.45743-21.164646 21.164645-21.164646zm0 0" fill="url(#g)" stroke="#212121" stroke-linecap="round" stroke-width="3" transform="matrix(.093759 0 0 .093759 0 20.158175)"/><path d="m960.065849 175.101398v760.084936h759.927471v-680.092571c0-44.247745-35.74462-79.992365-79.992366-79.992365zm0 0" fill="url(#h)" stroke="#212121" stroke-linecap="round" stroke-width="11.338583" transform="scale(.0248071)"/><path d="m6.945312 4.441406c-1.097656 0-1.984374.886719-1.984374 1.984375v.25c0-1.101562.886718-1.988281 1.984374-1.984375h33.738282c1.097656-.003906 1.984375.882813 1.984375 1.984375v-.25c0-1.097656-.886719-1.984375-1.984375-1.984375zm0 0" fill="#e6e6e6" fill-opacity=".392157"/><path d="m52.911614 32.434704h201.105795v201.064133h-179.94115c-11.707215 0-21.164645-9.45743-21.164645-21.164645zm0 0" fill="url(#i)" stroke="#212121" stroke-linecap="round" stroke-width="3" transform="matrix(.093759 0 0 .093759 0 20.158175)"/><path d="m254.017409 233.498837v-201.064133h201.064133v179.899488c0 11.707215-9.45743 21.164645-21.164646 21.164645zm0 0" fill="url(#j)" stroke="#212121" stroke-linecap="round" stroke-width="3" transform="matrix(.093759 0 0 .093759 0 20.158175)"/><path d="m6.945312 41.925781c-1.097656 0-1.984374-.882812-1.984374-1.984375v-.246094c0 1.097657.886718 1.984376 1.984374 1.984376h33.738282c1.097656 0 1.984375-.886719 1.984375-1.984376v.246094c0 1.101563-.886719 1.984375-1.984375 1.984375zm0 0" fill-opacity=".196078"/><path d="m6.945312 4.203125c-1.175781 0-2.125.949219-2.125 2.125v33.738281c0 1.175782.949219 2.125 2.125 2.125h33.738282c1.175781 0 2.125-.949218 2.125-2.125v-33.738281c0-1.175781-.949219-2.125-2.125-2.125zm0 .28125h33.738282c1.023437 0 1.84375.820313 1.84375 1.84375v33.738281c0 1.023438-.820313 1.84375-1.84375 1.84375h-33.738282c-1.023437 0-1.84375-.820312-1.84375-1.84375v-33.738281c0-1.023437.820313-1.84375 1.84375-1.84375zm0 0" fill="#212121"/></svg>

<?xml version="1.0" encoding="UTF-8"?>
<svg xmlns="http://www.w3.org/2000/svg" xmlns:xlink="http://www.w3.org/1999/xlink" width="48pt" height="48pt" viewBox="0 0 48 48" version="1.1">
<defs>
<linearGradient id="linear0" gradientUnits="userSpaceOnUse" x1="254" y1="233.5" x2="254" y2="254.666672" gradientTransform="matrix(0.093759,0,0,0.093759,-0.00000572259,20.158178)">
<stop offset="0" style="stop-color:rgb(0%,0%,0%);stop-opacity:0.27451;"/>
<stop offset="1" style="stop-color:rgb(0%,0%,0%);stop-opacity:0;"/>
</linearGradient>
<radialGradient id="radial0" gradientUnits="userSpaceOnUse" cx="450.908936" cy="189.579361" fx="450.908936" fy="189.579361" r="21.166656" gradientTransform="matrix(0.000000261256,-0.117199,-0.210958,-0.000000152308,78.195972,95.392999)">
<stop offset="0" style="stop-color:rgb(0%,0%,0%);stop-opacity:0.313725;"/>
<stop offset="0.222222" style="stop-color:rgb(0%,0%,0%);stop-opacity:0.27451;"/>
<stop offset="1" style="stop-color:rgb(0%,0%,0%);stop-opacity:0;"/>
</radialGradient>
<radialGradient id="radial1" gradientUnits="userSpaceOnUse" cx="450.908936" cy="189.579361" fx="450.908936" fy="189.579361" r="21.166656" gradientTransform="matrix(-0.000000261256,0.117199,0.210958,0.000000152308,-30.56642,-11.291218)">
<stop offset="0" style="stop-color:rgb(0%,0%,0%);stop-opacity:0.313725;"/>
<stop offset="0.222222" style="stop-color:rgb(0%,0%,0%);stop-opacity:0.27451;"/>
<stop offset="1" style="stop-color:rgb(0%,0%,0%);stop-opacity:0;"/>
</radialGradient>
<radialGradient id="radial2" gradientUnits="userSpaceOnUse" cx="450.908936" cy="189.579361" fx="450.908936" fy="189.579361" r="21.166656" gradientTransform="matrix(-0.000000261256,-0.117199,0.210958,-0.000000152308,-30.56642,95.392999)">
<stop offset="0" style="stop-color:rgb(0%,0%,0%);stop-opacity:0.313725;"/>
<stop offset="0.222222" style="stop-color:rgb(0%,0%,0%);stop-opacity:0.27451;"/>
<stop offset="1" style="stop-color:rgb(0%,0%,0%);stop-opacity:0;"/>
</radialGradient>
<radialGradient id="radial3" gradientUnits="userSpaceOnUse" cx="450.908936" cy="189.579361" fx="450.908936" fy="189.579361" r="21.166656" gradientTransform="matrix(0.000000261256,0.117199,-0.210958,0.000000152308,78.195969,-11.291219)">
<stop offset="0" style="stop-color:rgb(0%,0%,0%);stop-opacity:0.313725;"/>
<stop offset="0.222222" style="stop-color:rgb(0%,0%,0%);stop-opacity:0.27451;"/>
<stop offset="1" style="stop-color:rgb(0%,0%,0%);stop-opacity:0;"/>
</radialGradient>
<linearGradient id="linear1" gradientUnits="userSpaceOnUse" x1="338.666656" y1="32.416668" x2="338.666656" y2="-168.666656" gradientTransform="matrix(-1,0,0,1,508,-0.00000408366)">
<stop offset="0" style="stop-color:rgb(93.72549%,32.54902%,31.372549%);stop-opacity:1;"/>
<stop offset="1" style="stop-color:rgb(89.803922%,45.098039%,45.098039%);stop-opacity:1;"/>
</linearGradient>
<linearGradient id="linear2" gradientUnits="userSpaceOnUse" x1="338.666656" y1="32.416668" x2="338.666656" y2="-168.666656" gradientTransform="matrix(3.779528,0,0,3.779528,0,812.59845)">
<stop offset="0" style="stop-color:rgb(40%,73.333333%,41.568627%);stop-opacity:1;"/>
<stop offset="1" style="stop-color:rgb(50.588235%,78.039216%,51.764706%);stop-opacity:1;"/>
</linearGradient>
<linearGradient id="linear3" gradientUnits="userSpaceOnUse" x1="455.083313" y1="-62.833569" x2="254" y2="-62.833569" gradientTransform="matrix(0,1,1,0,221.583572,-221.583313)">
<stop offset="0" style="stop-color:rgb(100%,65.490196%,14.901961%);stop-opacity:1;"/>
<stop offset="1" style="stop-color:rgb(100%,71.764706%,30.196078%);stop-opacity:1;"/>
</linearGradient>
<linearGradient id="linear4" gradientUnits="userSpaceOnUse" x1="338.666656" y1="32.416428" x2="338.666656" y2="-168.666916" gradientTransform="matrix(1,0,0,-1,0,64.833092)">
<stop offset="0" style="stop-color:rgb(39.215686%,70.980392%,96.470588%);stop-opacity:1;"/>
<stop offset="1" style="stop-color:rgb(25.882353%,64.705882%,96.078431%);stop-opacity:1;"/>
</linearGradient>
</defs>
<g id="surface1">
<path style=" stroke:none;fill-rule:nonzero;fill:url(#linear0);" d="M 8.929688 41.902344 L 38.699219 41.902344 L 38.699219 44.109375 L 8.929688 44.109375 Z M 8.929688 41.902344 "/>
<path style=" stroke:none;fill-rule:nonzero;fill:url(#radial0);" d="M 38.699219 42.050781 L 42.667969 42.050781 L 42.667969 40.066406 L 38.699219 40.066406 Z M 38.699219 42.050781 "/>
<path style=" stroke:none;fill-rule:nonzero;fill:url(#radial1);" d="M 8.929688 42.050781 L 4.960938 42.050781 L 4.960938 44.035156 L 8.929688 44.035156 Z M 8.929688 42.050781 "/>
<path style=" stroke:none;fill-rule:nonzero;fill:url(#radial2);" d="M 8.929688 42.050781 L 4.960938 42.050781 L 4.960938 40.066406 L 8.929688 40.066406 Z M 8.929688 42.050781 "/>
<path style=" stroke:none;fill-rule:nonzero;fill:url(#radial3);" d="M 38.699219 42.050781 L 42.667969 42.050781 L 42.667969 44.035156 L 38.699219 44.035156 Z M 38.699219 42.050781 "/>
<path style="fill-rule:nonzero;fill:url(#linear1);stroke-width:3;stroke-linecap:round;stroke-linejoin:miter;stroke:rgb(12.941177%,12.941177%,12.941177%);stroke-opacity:1;stroke-miterlimit:4;" d="M 254.017409 -168.671091 L 254.017409 32.434704 L 52.911614 32.434704 L 52.911614 -147.506445 C 52.911614 -159.213661 62.369044 -168.671091 74.076259 -168.671091 Z M 254.017409 -168.671091 " transform="matrix(0.093759,0,0,0.093759,0,20.158175)"/>
<path style="fill-rule:nonzero;fill:url(#linear2);stroke-width:11.338583;stroke-linecap:round;stroke-linejoin:miter;stroke:rgb(12.941177%,12.941177%,12.941177%);stroke-opacity:1;stroke-miterlimit:4;" d="M 960.065849 175.101398 L 960.065849 935.186334 L 1719.99332 935.186334 L 1719.99332 255.093763 C 1719.99332 210.846018 1684.2487 175.101398 1640.000954 175.101398 Z M 960.065849 175.101398 " transform="matrix(0.0248071,0,0,0.0248071,0,0)"/>
<path style=" stroke:none;fill-rule:nonzero;fill:rgb(90.196079%,90.196079%,90.196079%);fill-opacity:0.392157;" d="M 6.945312 4.441406 C 5.847656 4.441406 4.960938 5.328125 4.960938 6.425781 L 4.960938 6.675781 C 4.960938 5.574219 5.847656 4.6875 6.945312 4.691406 L 40.683594 4.691406 C 41.78125 4.6875 42.667969 5.574219 42.667969 6.675781 L 42.667969 6.425781 C 42.667969 5.328125 41.78125 4.441406 40.683594 4.441406 Z M 6.945312 4.441406 "/>
<path style="fill-rule:nonzero;fill:url(#linear3);stroke-width:3;stroke-linecap:round;stroke-linejoin:miter;stroke:rgb(12.941177%,12.941177%,12.941177%);stroke-opacity:1;stroke-miterlimit:4;" d="M 52.911614 32.434704 L 254.017409 32.434704 L 254.017409 233.498837 L 74.076259 233.498837 C 62.369044 233.498837 52.911614 224.041407 52.911614 212.334192 Z M 52.911614 32.434704 " transform="matrix(0.093759,0,0,0.093759,0,20.158175)"/>
<path style="fill-rule:nonzero;fill:url(#linear4);stroke-width:3;stroke-linecap:round;stroke-linejoin:miter;stroke:rgb(12.941177%,12.941177%,12.941177%);stroke-opacity:1;stroke-miterlimit:4;" d="M 254.017409 233.498837 L 254.017409 32.434704 L 455.081542 32.434704 L 455.081542 212.334192 C 455.081542 224.041407 445.624112 233.498837 433.916896 233.498837 Z M 254.017409 233.498837 " transform="matrix(0.093759,0,0,0.093759,0,20.158175)"/>
<path style=" stroke:none;fill-rule:nonzero;fill:rgb(0%,0%,0%);fill-opacity:0.196078;" d="M 6.945312 41.925781 C 5.847656 41.925781 4.960938 41.042969 4.960938 39.941406 L 4.960938 39.695312 C 4.960938 40.792969 5.847656 41.679688 6.945312 41.679688 L 40.683594 41.679688 C 41.78125 41.679688 42.667969 40.792969 42.667969 39.695312 L 42.667969 39.941406 C 42.667969 41.042969 41.78125 41.925781 40.683594 41.925781 Z M 6.945312 41.925781 "/>
<path style=" stroke:none;fill-rule:nonzero;fill:rgb(12.941177%,12.941177%,12.941177%);fill-opacity:1;" d="M 6.945312 4.203125 C 5.769531 4.203125 4.820312 5.152344 4.820312 6.328125 L 4.820312 40.066406 C 4.820312 41.242188 5.769531 42.191406 6.945312 42.191406 L 40.683594 42.191406 C 41.859375 42.191406 42.808594 41.242188 42.808594 40.066406 L 42.808594 6.328125 C 42.808594 5.152344 41.859375 4.203125 40.683594 4.203125 Z M 6.945312 4.484375 L 40.683594 4.484375 C 41.707031 4.484375 42.527344 5.304688 42.527344 6.328125 L 42.527344 40.066406 C 42.527344 41.089844 41.707031 41.910156 40.683594 41.910156 L 6.945312 41.910156 C 5.921875 41.910156 5.101562 41.089844 5.101562 40.066406 L 5.101562 6.328125 C 5.101562 5.304688 5.921875 4.484375 6.945312 4.484375 Z M 6.945312 4.484375 "/>
</g>
</svg>
